X:51
T:Holy Socks
M:6/8
L:1/8
C: Paul Gitlitz 2001
R:Jig
B:Hunters and Gatherers
K:A
"A"EAA "F#m"FAA|"E"GAB "A"cBA|"D"dcd "Bm"fed|"A"cAc "E7"B2A|! 
"A"EAA "F#m"FAA|"E"GAB "A"cBc|"D"dcd "Bm"fed|"E7"cAB "A"A3:|!
"A"a2a ecA|aga f2e|aga ecA|"D"def "E"g2e|! 
"A"aga ecA|aga "F#m"f2e|"D"dcd "Bm"fed|"E7"cAB "A"A3:|]
